dist/files/common/section-icon-smart.svg

<svg width="96" height="96" viewBox="0 0 96 96" fill="none" xmlns="http://www.w3.org/2000/svg">
<g clip-path="url(#clip0_40_110)">
<path d="M73.1519 46.7321C72.7499 41.3655 70.9488 36.1979 67.9279 31.7441C64.8062 27.1233 60.3209 23.5914 55.0969 21.6404C49.8728 19.6895 44.1703 19.4167 38.7839 20.8601C33.4145 22.0848 28.5369 24.8947 24.7838 28.9252C21.0307 32.9558 18.5753 38.0211 17.7359 43.4641C17.4354 45.5667 17.4354 47.7014 17.7359 49.8041C18.0439 51.9881 18.8479 54.0761 20.0879 55.9041C22.2799 59.0121 25.6679 59.8881 27.3839 62.3201C28.0479 63.2601 28.3439 64.4081 28.2239 65.5521C28.203 65.8368 28.2955 66.1182 28.4814 66.3348C28.6673 66.5514 28.9314 66.6856 29.2159 66.7081H30.3359C33.1919 67.4974 36.0879 68.0948 39.0239 68.5001C40.2799 68.6601 41.5426 68.7401 42.8119 68.7401H46.5999C49.5079 68.7401 52.3799 68.1801 55.3319 67.7801C55.5036 67.7864 55.6747 67.7571 55.8344 67.6938C55.9941 67.6306 56.139 67.5348 56.2597 67.4127C56.3805 67.2905 56.4745 67.1446 56.5359 66.9842C56.5973 66.8237 56.6247 66.6523 56.6164 66.4807C56.608 66.3091 56.5641 66.1412 56.4875 65.9875C56.4108 65.8337 56.303 65.6976 56.171 65.5878C56.0389 65.4779 55.8855 65.3967 55.7204 65.3492C55.5553 65.3017 55.3822 65.2891 55.2119 65.3121L46.5999 64.8321H30.4119C30.4119 63.5121 30.0119 62.2161 29.2559 61.1241C27.6239 58.7721 24.3119 57.6961 22.2399 54.5881C21.3281 53.0558 20.7692 51.3395 20.6039 49.5641C20.3548 47.697 20.3817 45.8034 20.6839 43.9441C21.5748 39.2046 23.8614 34.8394 27.2503 31.4085C30.6392 27.9775 34.9758 25.6373 39.7039 24.6881C44.3025 23.4988 49.1567 23.765 53.5977 25.4499C58.0386 27.1349 61.8477 30.1557 64.4999 34.0961C67.1015 37.9249 68.6671 42.3624 69.0439 46.9761C69.2885 49.1881 69.0593 51.4269 68.3717 53.5435C67.6841 55.6601 66.5538 57.6061 65.0559 59.2521C64.4497 59.8578 63.8115 60.4306 63.1439 60.9681C61.3479 62.3601 59.5559 63.4761 57.7999 64.9521C57.1544 65.5978 56.6765 66.3915 56.4079 67.2641C56.0346 68.5761 55.7413 69.9054 55.5279 71.2521C55.4879 72.1721 55.1839 73.0521 54.6519 73.8041C52.1745 75.9279 48.9795 77.0253 45.7199 76.8721C40.7321 76.7188 35.8147 75.6518 31.2119 73.7241C31.5719 73.0841 31.2119 71.1321 31.2119 69.9361C31.1903 69.6044 31.0405 69.294 30.7941 69.0708C30.5477 68.8476 30.2242 68.729 29.8919 68.7401C29.565 68.7627 29.2603 68.9138 29.0444 69.1604C28.8285 69.407 28.7191 69.729 28.7399 70.0561C28.7399 71.6521 28.4599 73.6841 28.7399 74.5601C28.7939 74.8317 28.9126 75.0862 29.086 75.3021C29.2594 75.518 29.4824 75.6888 29.7359 75.8001C34.8519 78.1601 40.3759 79.5121 45.9999 79.7841C50.0542 80.0495 54.0537 78.735 57.1599 76.1161C57.7999 75.4961 58.2799 74.7281 58.5599 73.8841C58.9759 72.5774 59.2946 71.2481 59.5159 69.8961C59.4959 69.1921 59.6479 68.4961 59.9559 67.8641C61.7079 66.3481 63.4639 65.3521 65.2159 63.8761C66.0426 63.2654 66.8133 62.5881 67.5279 61.8441C69.4963 59.8773 71.0176 57.5093 71.9881 54.9015C72.9586 52.2936 73.3556 49.5072 73.1519 46.7321Z" fill="#FFE1CD"/>
<path d="M38.784 55.9041C39.024 53.5921 39.184 51.2401 39.384 48.9281C40.0107 49.5734 40.7147 50.1174 41.496 50.5601C42.768 51.3681 44.256 51.7681 45.764 51.7201C47.164 51.6801 48.532 51.2961 49.748 50.6001V53.9081C49.7347 56.5054 49.948 59.0841 50.388 61.6441C50.388 62.4841 52.38 63.0001 52.78 61.6441C52.54 59.0681 52.54 56.4894 52.78 53.9081C53.3347 50.4014 54.1187 46.9481 55.132 43.5481C55.2592 43.1623 55.249 42.7445 55.1032 42.3653C54.9574 41.9862 54.6849 41.6692 54.332 41.4681C53.9708 41.1948 53.5198 41.0676 53.069 41.1121C52.6183 41.1566 52.2008 41.3694 51.9 41.7081C51.7384 41.9024 51.6039 42.1177 51.5 42.3481L51.064 43.2281L50.104 44.7801C49.5678 45.5297 48.876 46.1546 48.076 46.6121C47.3612 47.0701 46.5328 47.3194 45.684 47.3321C44.7659 47.3228 43.8789 46.998 43.172 46.4121C42.3059 45.786 41.5955 44.9689 41.096 44.0241L40.38 42.2281C40.38 41.8681 40.1 40.9921 40.02 40.7521C39.8341 40.5055 39.5936 40.3053 39.3174 40.1672C39.0412 40.0291 38.7368 39.9569 38.428 39.9561C38.1095 39.8744 37.7749 39.8795 37.459 39.971C37.1432 40.0624 36.8576 40.2368 36.632 40.4761C35.356 41.8281 36.352 49.4841 35.792 58.3761C35.8853 59.2362 35.8853 60.104 35.792 60.9641C35.792 62.6441 37.672 63.1201 38.108 61.3641C38.532 59.5761 38.756 57.7441 38.784 55.9041ZM12.392 24.7281C11.9019 24.1315 11.3554 23.5837 10.76 23.0921L8.92402 21.7361C7.44802 20.7801 5.89602 20.0241 4.34002 19.1441C4.06809 18.9541 3.73303 18.8772 3.40546 18.9294C3.07789 18.9816 2.78339 19.159 2.58402 19.4241C2.39633 19.6897 2.3205 20.0184 2.37288 20.3394C2.42525 20.6604 2.60164 20.9479 2.86402 21.1401C4.06402 22.3761 5.21602 23.6121 6.45202 24.8081C6.97202 25.3281 7.49202 25.8441 8.00802 26.2801C8.52802 26.7201 9.08402 27.2001 9.64402 27.6401C11.0254 28.5761 12.3534 29.5854 13.628 30.6681C13.8301 30.8672 14.1024 30.9788 14.386 30.9788C14.6697 30.9788 14.942 30.8672 15.144 30.6681C15.2627 30.5816 15.3624 30.4718 15.4372 30.3454C15.512 30.2191 15.5602 30.0788 15.5789 29.9331C15.5976 29.7875 15.5864 29.6396 15.5461 29.4984C15.5057 29.3573 15.4369 29.2258 15.344 29.1121C14.5302 27.5431 13.5398 26.0722 12.392 24.7281ZM28.26 6.9481C28.46 7.68143 28.7134 8.39876 29.02 9.1001C29.3 9.7801 29.576 10.4561 29.936 11.1321C30.772 12.6881 31.768 14.0841 32.644 15.6761C32.7745 15.9068 32.9826 16.0837 33.2313 16.1754C33.4799 16.2672 33.7531 16.2677 34.0021 16.177C34.2511 16.0864 34.4599 15.9103 34.5914 15.6801C34.7229 15.45 34.7684 15.1807 34.72 14.9201C34.4601 13.1332 34.0995 11.3624 33.64 9.6161C33.4223 8.88719 33.17 8.16904 32.884 7.4641C32.6509 6.7683 32.3703 6.08937 32.044 5.4321C31.016 3.8361 30.06 2.4001 29.14 0.848097C29.0866 0.688318 29.0012 0.541098 28.889 0.415423C28.7768 0.289747 28.6402 0.188252 28.4875 0.117132C28.3347 0.0460112 28.1691 0.00675716 28.0007 0.00176522C27.8323 -0.00322672 27.6647 0.0261482 27.508 0.0880971C27.2085 0.212374 26.9696 0.449045 26.8425 0.747384C26.7153 1.04572 26.7102 1.38198 26.828 1.6841C27.308 3.5561 27.708 5.2721 28.268 6.9481M58.04 17.4321C58.182 17.4488 58.3259 17.4371 58.4633 17.3977C58.6007 17.3583 58.729 17.2921 58.8406 17.2028C58.9522 17.1135 59.045 17.0029 59.1136 16.8775C59.1821 16.7521 59.2251 16.6143 59.24 16.4721C59.8 15.0241 60.2907 13.5494 60.712 12.0481C60.912 11.1721 60.992 10.2561 61.112 9.3801C61.1471 8.04081 61.2943 6.70682 61.552 5.3921C61.6393 5.24288 61.6961 5.07783 61.7192 4.90651C61.7423 4.73519 61.7313 4.56099 61.6866 4.39398C61.642 4.22697 61.5647 4.07047 61.4592 3.93351C61.3537 3.79656 61.2221 3.68188 61.072 3.5961C60.7699 3.42305 60.4116 3.3764 60.0752 3.4663C59.7388 3.55621 59.4516 3.77538 59.276 4.0761C58.4279 5.31125 57.7448 6.65193 57.244 8.0641C57.044 8.6641 56.884 9.27476 56.764 9.8961C56.724 10.5228 56.724 11.1481 56.764 11.7721C56.764 13.2841 57.084 14.6401 57.204 15.9961C57.1626 16.1456 57.1516 16.3018 57.1716 16.4556C57.1916 16.6095 57.2423 16.7577 57.3206 16.8916C57.3989 17.0255 57.5033 17.1423 57.6276 17.2351C57.7518 17.328 57.8894 17.3949 58.04 17.4321ZM92.328 29.9881C90.452 29.9881 88.7 29.7081 86.864 29.7081H84.512C83.752 29.7081 82.956 29.9881 82.2 30.1881C80.4187 30.7908 78.704 31.5481 77.056 32.4601C76.8921 32.4829 76.7352 32.5418 76.5967 32.6325C76.4583 32.7232 76.3416 32.8435 76.2552 32.9846C76.1688 33.1258 76.1147 33.2844 76.0969 33.449C76.0791 33.6135 76.098 33.78 76.1523 33.9364C76.2065 34.0928 76.2947 34.2352 76.4106 34.3534C76.5265 34.4716 76.6671 34.5627 76.8224 34.62C76.9777 34.6774 77.1437 34.6996 77.3086 34.6851C77.4735 34.6706 77.6331 34.6197 77.776 34.5361C79.568 34.2561 81.244 34.2561 82.956 34.1361L85.112 33.8961L87.304 33.4961C89.016 33.1361 90.692 32.7001 92.484 32.3401C92.8113 32.3003 93.1118 32.1395 93.3265 31.8893C93.5411 31.6391 93.6544 31.3176 93.644 30.9881C93.5859 30.688 93.419 30.42 93.1754 30.2354C92.9318 30.0509 92.6286 29.9628 92.324 29.9881M51.664 84.0081C50.3334 84.0908 49.004 84.0908 47.676 84.0081C46.396 84.0081 45.124 83.8081 43.688 83.7281L39.704 83.5281C37.072 83.5281 34.48 83.5281 31.728 83.2481C31.4425 83.1893 31.1453 83.2442 30.8995 83.401C30.6538 83.5579 30.4789 83.8043 30.412 84.0881C30.3521 84.3742 30.4064 84.6725 30.5633 84.9191C30.7203 85.1657 30.9674 85.3412 31.252 85.4081C33.4866 86.2954 35.7939 86.9873 38.148 87.4761C39.1774 87.6628 40.2134 87.7694 41.256 87.7961C42.2934 87.8761 43.3307 87.8761 44.368 87.7961C46.944 87.5881 49.4814 87.1494 51.98 86.4801C52.3052 86.4213 52.5951 86.239 52.7889 85.9713C52.9828 85.7037 53.0656 85.3714 53.02 85.0441C52.9696 84.7299 52.8003 84.4471 52.5471 84.2542C52.294 84.0614 51.9763 83.9733 51.66 84.0081M47.36 92.0641C46.0245 92.0275 44.6925 91.9072 43.372 91.7041C42.4956 91.6463 41.6164 91.6463 40.74 91.7041C39.144 91.7041 37.668 92.1041 36.116 92.2641C35.9743 92.2474 35.8308 92.259 35.6936 92.2981C35.5564 92.3372 35.4283 92.4031 35.3168 92.492C35.2052 92.5809 35.1123 92.691 35.0435 92.8159C34.9748 92.9409 34.9314 93.0783 34.916 93.2201C34.9032 93.5127 34.9978 93.7998 35.182 94.0275C35.3661 94.2551 35.6272 94.4076 35.916 94.4561C37.26 94.9708 38.628 95.4081 40.02 95.7681C40.612 95.8748 41.2107 95.9414 41.816 95.9681C42.4267 96.0081 43.0373 96.0081 43.648 95.9681C45.1592 95.679 46.6236 95.1837 48 94.4961C48.3145 94.4193 48.5867 94.223 48.7588 93.9488C48.9308 93.6745 48.9892 93.3441 48.9215 93.0275C48.8538 92.7109 48.6654 92.4332 48.3963 92.2533C48.1271 92.0734 47.7984 92.0055 47.48 92.0641H47.36Z" fill="#FFE1CD"/>
</g>
<defs>
<clipPath id="clip0_40_110">
<rect width="96" height="96" fill="white"/>
</clipPath>
</defs>
</svg>

<svg xmlns="http://www.w3.org/2000/svg" fill="none" viewBox="0 0 96 96"><g fill="#ffe1cd" clip-path="url(#a)"><path d="M73.152 46.732a30.8 30.8 0 0 0-5.224-14.988A26.8 26.8 0 0 0 38.784 20.86a27.48 27.48 0 0 0-21.048 22.604c-.3 2.103-.3 4.237 0 6.34a14.5 14.5 0 0 0 2.352 6.1c2.192 3.108 5.58 3.984 7.296 6.416.664.94.96 2.088.84 3.232a1.08 1.08 0 0 0 .992 1.156h1.12a67 67 0 0 0 8.688 1.792q1.884.24 3.788.24H46.6c2.908 0 5.78-.56 8.732-.96a1.24 1.24 0 1 0-.12-2.468l-8.612-.48H30.412c0-1.32-.4-2.616-1.156-3.708-1.632-2.352-4.944-3.428-7.016-6.536a12 12 0 0 1-1.636-5.024c-.25-1.867-.222-3.76.08-5.62a24.2 24.2 0 0 1 19.02-19.256A22.96 22.96 0 0 1 64.5 34.096a26.8 26.8 0 0 1 4.544 12.88 15.68 15.68 0 0 1-3.988 12.276 24 24 0 0 1-1.912 1.716c-1.796 1.392-3.588 2.508-5.344 3.984a5.6 5.6 0 0 0-1.392 2.312 34 34 0 0 0-.88 3.988c-.04.92-.344 1.8-.876 2.552a12.8 12.8 0 0 1-8.932 3.068 40.8 40.8 0 0 1-14.508-3.148c.36-.64 0-2.592 0-3.788a1.28 1.28 0 0 0-1.32-1.196 1.24 1.24 0 0 0-1.152 1.316c0 1.596-.28 3.628 0 4.504a1.72 1.72 0 0 0 .996 1.24A43.9 43.9 0 0 0 46 79.784a15.72 15.72 0 0 0 11.16-3.668 5.54 5.54 0 0 0 1.4-2.232q.624-1.96.956-3.988c-.02-.704.132-1.4.44-2.032 1.752-1.516 3.508-2.512 5.26-3.988a18 18 0 0 0 2.312-2.032 19.36 19.36 0 0 0 5.624-15.112"/><path d="M38.784 55.904c.24-2.312.4-4.664.6-6.976a9.4 9.4 0 0 0 2.112 1.632 7.5 7.5 0 0 0 4.268 1.16 8.5 8.5 0 0 0 3.984-1.12v3.308q-.02 3.896.64 7.736c0 .84 1.992 1.356 2.392 0a41.7 41.7 0 0 1 0-7.736 80 80 0 0 1 2.352-10.36 1.76 1.76 0 0 0-.8-2.08 1.8 1.8 0 0 0-2.432.24q-.243.293-.4.64l-.436.88-.96 1.552a6.4 6.4 0 0 1-2.028 1.832 4.56 4.56 0 0 1-2.392.72 4 4 0 0 1-2.512-.92 6.96 6.96 0 0 1-2.076-2.388l-.716-1.796c0-.36-.28-1.236-.36-1.476a2 2 0 0 0-1.592-.796 1.84 1.84 0 0 0-1.796.52c-1.276 1.352-.28 9.008-.84 17.9a12 12 0 0 1 0 2.588c0 1.68 1.88 2.156 2.316.4.424-1.788.648-3.62.676-5.46M12.392 24.728a12 12 0 0 0-1.632-1.636l-1.836-1.356c-1.476-.956-3.028-1.712-4.584-2.592a1.28 1.28 0 0 0-1.756.28 1.24 1.24 0 0 0 .28 1.716c1.2 1.236 2.352 2.472 3.588 3.668.52.52 1.04 1.036 1.556 1.472.52.44 1.076.92 1.636 1.36a46 46 0 0 1 3.984 3.028 1.08 1.08 0 0 0 1.516 0 1.08 1.08 0 0 0 .2-1.556 23.2 23.2 0 0 0-2.952-4.384M28.26 6.948q.3 1.1.76 2.152c.28.68.556 1.356.916 2.032.836 1.556 1.832 2.952 2.708 4.544a1.12 1.12 0 0 0 2.076-.756 48 48 0 0 0-1.08-5.304 24 24 0 0 0-.756-2.152 16 16 0 0 0-.84-2.032C31.016 3.836 30.06 2.4 29.14.848a1.24 1.24 0 0 0-1.632-.76 1.24 1.24 0 0 0-.68 1.596c.48 1.872.88 3.588 1.44 5.264M58.04 17.432a1.08 1.08 0 0 0 1.2-.96 49 49 0 0 0 1.472-4.424c.2-.876.28-1.792.4-2.668.035-1.34.182-2.673.44-3.988a1.31 1.31 0 0 0-.48-1.796 1.32 1.32 0 0 0-1.796.48 17.2 17.2 0 0 0-2.032 3.988q-.3.9-.48 1.832-.06.94 0 1.876c0 1.512.32 2.868.44 4.224a1.16 1.16 0 0 0 .836 1.436m34.288 12.556c-1.876 0-3.628-.28-5.464-.28h-2.352c-.76 0-1.556.28-2.312.48a31.4 31.4 0 0 0-5.144 2.272 1.12 1.12 0 1 0 .72 2.076c1.792-.28 3.468-.28 5.18-.4l2.156-.24 2.192-.4c1.712-.36 3.388-.796 5.18-1.156a1.32 1.32 0 0 0 1.16-1.352 1.24 1.24 0 0 0-1.32-1m-40.66 54.02q-1.995.124-3.988 0c-1.28 0-2.552-.2-3.988-.28l-3.984-.2c-2.632 0-5.224 0-7.976-.28a1.12 1.12 0 0 0-1.316.84 1.12 1.12 0 0 0 .84 1.32 41.6 41.6 0 0 0 6.896 2.068q1.544.28 3.108.32 1.556.12 3.112 0a42.6 42.6 0 0 0 7.612-1.316 1.28 1.28 0 0 0 1.04-1.436 1.24 1.24 0 0 0-1.36-1.036m-4.3 8.056a32 32 0 0 1-3.988-.36 20 20 0 0 0-2.632 0c-1.596 0-3.072.4-4.624.56a1.08 1.08 0 0 0-1.2.956 1.2 1.2 0 0 0 1 1.236q2.016.772 4.104 1.312.887.16 1.796.2a14 14 0 0 0 1.832 0A16.8 16.8 0 0 0 48 94.496a1.244 1.244 0 0 0-.52-2.432z"/></g><defs><clipPath id="a"><path fill="#fff" d="M0 0h96v96H0z"/></clipPath></defs></svg>
